symbols/web/repeat_one_on/materialsymbolsoutlined/repeat_one_on_wght700_40px.svg

<svg xmlns="http://www.w3.org/2000/svg" height="40" width="40"><path d="M19 25.208h2.75v-10.5h-4.917v2.75H19ZM5.5 38.833q-1.792 0-3.062-1.271-1.271-1.27-1.271-3.062v-29q0-1.792 1.271-3.062Q3.708 1.167 5.5 1.167h29q1.792 0 3.062 1.271 1.271 1.27 1.271 3.062v29q0 1.792-1.271 3.062-1.27 1.271-3.062 1.271Zm6.167-1.791L14 34.625l-3-2.958h20.958v-10h-3.333v6.666H11l3-2.958-2.333-2.417L4.625 30ZM8.042 18.333h3.333v-6.666h17.667L26 14.625l2.333 2.417L35.375 10l-7.042-7.042L26 5.375l3.042 2.958h-21Z"/></svg>

<svg xmlns="http://www.w3.org/2000/svg" height="40" width="40"><path d="M19 25.208H21.75V14.708H16.833V17.458H19ZM5.5 38.833Q3.708 38.833 2.438 37.562Q1.167 36.292 1.167 34.5V5.5Q1.167 3.708 2.438 2.438Q3.708 1.167 5.5 1.167H34.5Q36.292 1.167 37.562 2.438Q38.833 3.708 38.833 5.5V34.5Q38.833 36.292 37.562 37.562Q36.292 38.833 34.5 38.833ZM11.667 37.042 14 34.625 11 31.667H31.958V21.667H28.625V28.333H11L14 25.375L11.667 22.958L4.625 30ZM8.042 18.333H11.375V11.667H29.042L26 14.625L28.333 17.042L35.375 10L28.333 2.958L26 5.375L29.042 8.333H8.042Z"/></svg>
